src/client/web-contents/img/common/badge/badge_status_08.svg

<svg height="32" viewBox="0 0 80 32" width="80" xmlns="http://www.w3.org/2000/svg"><g fill="none" fill-rule="evenodd"><rect fill="#119ed7" height="32" rx="4" width="80"/><path d="m21.16 14.68h-5.12v1.44h7.06v1.64h-16.1v-1.64h7v-1.44h-4.86v-7.18h11.88v1.64h-9.82v1.16h9.2v1.54h-9.2v1.24h9.96zm.08 7.14c0 1.86-2 3.14-6.18 3.14s-6.18-1.28-6.18-3.14c0-1.84 2-3.12 6.16-3.12 4.2 0 6.2 1.28 6.2 3.12zm-2.12 0c0-.92-1.54-1.48-4.08-1.48-2.5 0-4.06.56-4.06 1.48 0 .94 1.56 1.5 4.06 1.5 2.54 0 4.08-.56 4.08-1.5zm14.36-10.58h-10.32v-1.56h10.32zm-1 3.48c0 1.64-1.6 2.84-4.14 2.84-2.56 0-4.18-1.2-4.18-2.84 0-1.66 1.6-2.86 4.18-2.86 2.54 0 4.14 1.2 4.14 2.86zm-1.92 0c0-.84-1.08-1.38-2.22-1.38-1.16 0-2.26.54-2.26 1.38s1.12 1.34 2.26 1.34 2.22-.5 2.22-1.34zm-4.82-6.06v-1.58h5.22v1.58zm14.02 4.54h-2.62v4.04h-2.06v-10.24h2.06v4.48h2.62zm-2.62 11.46h-11.42v-6.48h2.06v1.64h7.3v-1.68h2.06zm-2.06-1.62v-1.58h-7.3v1.58zm19.54 1.78h-1.98v-9.02h-1.8v8.16h-1.94v-16.6h1.94v6.72h1.8v-7.08h1.98zm-6.96-6.5.26 1.64c-1.48.34-3.78.5-5.94.5h-1.8v-11.3h6.72v1.66c-1.54 0-3.12-.02-4.64-.02v7.96c2.22 0 4.06-.14 5.4-.44zm24.34 4.2h-16.1v-1.64h4.1v-3.58h2.04v3.58h3.76v-3.58h2.04v3.58h4.16zm-1.58-6.1h-13.02v-1.66h2.64l-.34-3.64 2.06-.26.24 3.9h3.96l.52-3.86 2 .34-.58 3.52h2.52zm.02-6.36h-13.06v-1.64h13.06z" fill="#fff"/></g></svg>

<?xml version="1.0" encoding="UTF-8" standalone="no"?>
<svg width="80px" height="32px" viewBox="0 0 80 32" version="1.1" xmlns="http://www.w3.org/2000/svg" xmlns:xlink="http://www.w3.org/1999/xlink">
    <!-- Generator: Sketch 50.2 (55047) - http://www.bohemiancoding.com/sketch -->
    <title>graphic_badge_status_08</title>
    <desc>Created with Sketch.</desc>
    <defs></defs>
    <g id="Icon_Badge_Graphic" stroke="none" stroke-width="1" fill="none" fill-rule="evenodd">
        <g id="##Element/Badge/Status08">
            <rect id="Rectangle-2" fill="#119ED7" x="0" y="0" width="80" height="32" rx="4"></rect>
            <path d="M21.16,14.68 L16.04,14.68 L16.04,16.12 L23.1,16.12 L23.1,17.76 L7,17.76 L7,16.12 L14,16.12 L14,14.68 L9.14,14.68 L9.14,7.5 L21.02,7.5 L21.02,9.14 L11.2,9.14 L11.2,10.3 L20.4,10.3 L20.4,11.84 L11.2,11.84 L11.2,13.08 L21.16,13.08 L21.16,14.68 Z M21.24,21.82 C21.24,23.68 19.24,24.96 15.06,24.96 C10.88,24.96 8.88,23.68 8.88,21.82 C8.88,19.98 10.88,18.7 15.04,18.7 C19.24,18.7 21.24,19.98 21.24,21.82 Z M19.12,21.82 C19.12,20.9 17.58,20.34 15.04,20.34 C12.54,20.34 10.98,20.9 10.98,21.82 C10.98,22.76 12.54,23.32 15.04,23.32 C17.58,23.32 19.12,22.76 19.12,21.82 Z M33.48,11.24 L23.16,11.24 L23.16,9.68 L33.48,9.68 L33.48,11.24 Z M32.48,14.72 C32.48,16.36 30.88,17.56 28.34,17.56 C25.78,17.56 24.16,16.36 24.16,14.72 C24.16,13.06 25.76,11.86 28.34,11.86 C30.88,11.86 32.48,13.06 32.48,14.72 Z M30.56,14.72 C30.56,13.88 29.48,13.34 28.34,13.34 C27.18,13.34 26.08,13.88 26.08,14.72 C26.08,15.56 27.2,16.06 28.34,16.06 C29.48,16.06 30.56,15.56 30.56,14.72 Z M25.74,8.66 L25.74,7.08 L30.96,7.08 L30.96,8.66 L25.74,8.66 Z M39.76,13.2 L37.14,13.2 L37.14,17.24 L35.08,17.24 L35.08,7 L37.14,7 L37.14,11.48 L39.76,11.48 L39.76,13.2 Z M37.14,24.66 L25.72,24.66 L25.72,18.18 L27.78,18.18 L27.78,19.82 L35.08,19.82 L35.08,18.14 L37.14,18.14 L37.14,24.66 Z M35.08,23.04 L35.08,21.46 L27.78,21.46 L27.78,23.04 L35.08,23.04 Z M54.62,24.82 L52.64,24.82 L52.64,15.8 L50.84,15.8 L50.84,23.96 L48.9,23.96 L48.9,7.36 L50.84,7.36 L50.84,14.08 L52.64,14.08 L52.64,7 L54.62,7 L54.62,24.82 Z M47.66,18.32 L47.92,19.96 C46.44,20.3 44.14,20.46 41.98,20.46 L40.18,20.46 L40.18,9.16 L46.9,9.16 L46.9,10.82 C45.36,10.82 43.78,10.8 42.26,10.8 L42.26,18.76 C44.48,18.76 46.32,18.62 47.66,18.32 Z M72,22.52 L55.9,22.52 L55.9,20.88 L60,20.88 L60,17.3 L62.04,17.3 L62.04,20.88 L65.8,20.88 L65.8,17.3 L67.84,17.3 L67.84,20.88 L72,20.88 L72,22.52 Z M70.42,16.42 L57.4,16.42 L57.4,14.76 L60.04,14.76 L59.7,11.12 L61.76,10.86 L62,14.76 L65.96,14.76 L66.48,10.9 L68.48,11.24 L67.9,14.76 L70.42,14.76 L70.42,16.42 Z M70.44,10.06 L57.38,10.06 L57.38,8.42 L70.44,8.42 L70.44,10.06 Z" id="통합대표" fill="#FFFFFF"></path>
        </g>
    </g>
</svg>
